public/avatar/body/32.svg

<svg xmlns:xlink="http://www.w3.org/1999/xlink" height="82" width="84.85" xmlns="http://www.w3.org/2000/svg"><g transform="translate(37.4 42.25)"><use height="38" transform="translate(-11.95 -17.45)" width="32.05" xlink:href="#a"/><use height="21.6" transform="translate(-12.25 -17.95)" width="32.65" xlink:href="#b"/><use height="21.15" transform="translate(-13.2 2.25)" width="34.9" xlink:href="#c"/><use height="14.45" transform="translate(-11.75 -.2)" width="31.05" xlink:href="#d"/><use height="13.7" transform="translate(-7.8 9.3)" width="18.9" xlink:href="#e"/><use height="6.7" transform="translate(-13.5 17.2)" width="35.7" xlink:href="#f"/><use height="19.4" transform="translate(18.7 .5)" width="3.5" xlink:href="#g"/><use height="18.25" transform="translate(-13.6 .45)" width="2.7" xlink:href="#h"/><use height="3.7" transform="translate(-10.8 6.5)" width="27.75" xlink:href="#i"/><use height="3.5" transform="translate(1.7 11)" width="6.6" xlink:href="#j"/><use height="10.55" transform="translate(-7.1 9.9)" width="12.5" xlink:href="#k"/><use height="3.25" transform="translate(-8.35 8.8)" width="22.7" xlink:href="#l"/><use height="3.3" transform="translate(-11.75 4.6)" width="30.3" xlink:href="#m"/><use height="6.45" transform="translate(-12 -.4)" width="31.85" xlink:href="#n"/><use height="8.35" transform="translate(9.65 13.1)" width="7.6" xlink:href="#o"/><use height="7.15" transform="translate(10.15 13.35)" width="6.75" xlink:href="#p"/><use height="4.25" transform="translate(12.1 15.95)" width="3.4" xlink:href="#q"/></g><defs><use height="38" width="32.05" xlink:href="#r" id="a"/><use height="21.6" width="32.65" xlink:href="#s" id="b"/><use height="21.15" width="34.9" xlink:href="#t" id="c"/><use height="14.45" width="31.05" xlink:href="#u" id="d"/><use height="13.7" width="18.9" xlink:href="#v" id="e"/><use height="6.7" width="35.7" xlink:href="#w" id="f"/><use height="19.4" width="3.5" xlink:href="#x" id="g"/><use height="18.25" width="2.7" xlink:href="#y" id="h"/><use height="3.7" width="27.75" xlink:href="#z" id="i"/><use height="3.5" width="6.6" xlink:href="#A" id="j"/><use height="10.55" width="12.5" xlink:href="#B" id="k"/><use height="3.25" width="22.7" xlink:href="#C" id="l"/><use height="3.3" width="30.3" xlink:href="#D" id="m"/><use height="6.45" width="31.85" xlink:href="#E" id="n"/><use height="8.35" width="7.6" xlink:href="#F" id="o"/><use height="7.15" width="6.75" xlink:href="#G" id="p"/><use height="4.25" width="3.4" xlink:href="#H" id="q"/><path d="M27.35 7.4q2.15 4.15 3.55 8.75 1.45 4.7 1.15 9.5-.35 4.95-4.2 8.1-3.8 3.2-8.75 4.05l-2.6.2q-3.6 0-7.05-1.15-4.65-1.6-7.1-5.5Q-.2 27.4.05 23q.2-4.4 2-9.3Q3.85 8.75 7 5.05 10.1 1.3 14.7.1l1.8-.1q1.9.05 3.7.8 4.75 2.05 7.15 6.6" fill="#fff" fill-rule="evenodd" transform="translate(-.05)" id="r"/><path d="M31.9 20.6q-.3-2.25-1-4.45-1.4-4.6-3.55-8.75-2.4-4.55-7.15-6.6-2.65-1.1-5.5-.7Q10.1 1.3 7 5.05q-3.15 3.7-4.95 8.65Q.7 17.3.25 20.6" fill="none" stroke="#000" stroke-linecap="round" stroke-linejoin="round" transform="translate(.25 .5)" id="s"/><path d="M20.5 12.05q-4.85 2.25-7.1 2.4-1.45.15-2.65-1l-1.95-2.2-2.35-2L3.7 6.8q-1.8-1.05-2.45-2L0 1.4l.35-.3 2.6 3.7q.85.85 3.7 2.15Q8 7.5 10.6 8.8q1 .5 2.75 2.2l1.8-1.1L17.3 9l5.2-2.4q4.25-2.1 5.45-3.25Q30.7.75 31.05 0q-.15 1.9-2.4 5.5-2.25 3.85-8.15 6.55" fill="#c4b5b4" fill-rule="evenodd" id="u"/><path d="M13 .45q6.15-.4 5.9 2.15-4.6 2.1-8 5.2-3.65 3.2-5.75 5.75Q.85 12.3 0 12.3q.1-.7 1.3-2.35Q3 7.6 5.2 5.55l-.2.1-1.85-2.2q-.6-.6-2.2-1.7Q2.55-.7 5.1 0l2.2 1.5 1.35 1.1.05.1Q9.85 1.85 13 .45" fill-rule="evenodd" transform="translate(0 .15)" id="v"/><path d="M2.5 18.4q-.8-3.5-1.85-4.5 2.4-3.55 1.3-7.5Q.55 1.05 0 0" fill="none" stroke="#313131" stroke-linecap="round" stroke-linejoin="round" transform="translate(.5 .5)" id="x"/><path d="M.2 17.25q.4-2.3 1.5-3.3-2.45-3.6-1.35-7.5Q1.8 1.1 1.5 0" fill="none" stroke="#313131" stroke-linecap="round" stroke-linejoin="round" transform="translate(.5 .5)" id="y"/><path d="M.65 1.9 0 1.1Q.45-.35 3.95.5L7 2.2Q5.15 3.6 2.45 3.6L.65 1.9m27.1-.6-.65.75-1.95 1.55q-5.35.15-7.35-1.1L23.05 0q4.65-.5 4.7 1.3" fill="#bfbfbf" fill-rule="evenodd" transform="translate(0 .1)" id="z"/><path d="M1.55 0q3.7.6 5.05 2.4-1.4.55-2.1 1.1Q1.6.9 0 1.1.5.4 1.55 0" fill="#454545" fill-rule="evenodd" id="A"/><path d="M12.5.05q-.3-.3-4.55 3.05l-4.7 4.2L0 10.55q.2-.65 2.5-3.5 1.3-1.5 3.3-3.2Q9.5.55 12.45 0l.05.05" fill="#a5a9aa" fill-rule="evenodd" id="B"/><path d="M0 1.2Q1.35-.6 2.6.4l.1.1 2.2 1.75-3.95.6Q.3 2.1 0 1.2M30.3.85l-1.6 2.2-4.7-1.3Q25.7.95 27 0q2.75-.75 3.3.85" fill="#959595" fill-rule="evenodd" transform="translate(0 .25)" id="D"/><path d="M7.6 1.6q.1 1.65-1.4 4.35-1.7 3-3.25 2.25Q1.6 7.5.6 5.6-.5 3.55.35 2.35 1.6.55 4.25.1 7.5-.35 7.6 1.6" fill="#9f1600" fill-rule="evenodd" id="F"/><path d="M6.75 1.3Q6.7 2.35 5.6 4.05l-2.2 3.1-2.25-3.1L0 1.3 3.4 0l3.35 1.3" fill="#fff" fill-rule="evenodd" id="G"/><path d="M1.15 3.85Q-.25 1.7.05.85.4-.05 1.6 0q1.1.05 1.8.75l-1.9 3.5-.35-.4" fill="#d9b789" fill-rule="evenodd" id="H"/><path d="m20.1 2.95-.65.3q-3.9-2-5.9-2.15l1.8-.8 7.35 1.1-2.6 1.55M4.55 0l1.1.65L1.5 2.4 0 1.4Q2.2.55 4.55 0" id="C" fill="#959595" fill-rule="evenodd"/><path d="M31.65 3.55q-.1.85-1.1 2.55-1.85-.8-3.3-.85l.5-.4q2.6-2.25 3-4.35l.55-.5q.9.3.35 3.55M1 .9q-.05 2.05.15 2.6.2.55 1.7 2.15l-2.6.8Q-.2 5.15.1 2.65L.4.25q-.05.3.6.65" id="E" fill="#2b2b2b" fill-rule="evenodd"/><g id="t" fill="#666" fill-rule="evenodd"><path d="m33.55 12.4 1.85 4.75Q30.55 21 17.55 21l-9.7-1.35q.95-2.1 3.25-4.6 4.6-4.95 11.55-6.65 6.1-1.55 9.1-5.1 1.5-1.8 1.8-3.3l1.75 7.65q.2 1.1-1.75 4.75" transform="translate(-.5)"/><path d="M1.8.2q-.4 1.65.35 3.45 1.55 3.8 7.5 4.5 3.3.4 4.1 4.8.4 2.2.1 4.35l3.95 3.85q-7.8 0-11.45-1.7l2.7-1.25q-5.7.25-8.35-2.75L2.25 13Q0 9.6.65 5.95 1.25 2.45 1.8.2" transform="translate(-.5)"/></g><g id="w"><path d="M.2.9 0 .55.1.2Q.25.05.45 0L.8.1q2.45 1.95 5.85 2.65l-.6.9Q2.7 2.85.2.9" fill="#313131" fill-rule="evenodd"/><path d="M6.45 4.6Q12 6.2 17.6 6.2q10.5 0 17.6-4" fill="none" stroke="#313131" stroke-linecap="round" stroke-linejoin="round"/></g></defs></svg>

<?xml version="1.0" encoding="UTF-8" standalone="no"?>
<svg xmlns:xlink="http://www.w3.org/1999/xlink" height="82.0px" width="84.85px" xmlns="http://www.w3.org/2000/svg">
  <g transform="matrix(1.0, 0.0, 0.0, 1.0, 37.4, 42.25)">
    <use height="38.0" transform="matrix(1.0, 0.0, 0.0, 1.0, -11.95, -17.45)" width="32.05" xlink:href="#sprite0"/>
    <use height="21.6" transform="matrix(1.0, 0.0, 0.0, 1.0, -12.25, -17.95)" width="32.65" xlink:href="#sprite1"/>
    <use height="21.15" transform="matrix(1.0, 0.0, 0.0, 1.0, -13.2, 2.25)" width="34.9" xlink:href="#sprite2"/>
    <use height="14.45" transform="matrix(1.0, 0.0, 0.0, 1.0, -11.75, -0.2)" width="31.05" xlink:href="#sprite3"/>
    <use height="13.7" transform="matrix(1.0, 0.0, 0.0, 1.0, -7.8, 9.3)" width="18.9" xlink:href="#sprite4"/>
    <use height="6.7" transform="matrix(1.0, 0.0, 0.0, 1.0, -13.5, 17.2)" width="35.7" xlink:href="#sprite5"/>
    <use height="19.4" transform="matrix(1.0, 0.0, 0.0, 1.0, 18.7, 0.5)" width="3.5" xlink:href="#sprite6"/>
    <use height="18.25" transform="matrix(1.0, 0.0, 0.0, 1.0, -13.6, 0.45)" width="2.7" xlink:href="#sprite7"/>
    <use height="3.7" transform="matrix(1.0, 0.0, 0.0, 1.0, -10.8, 6.5)" width="27.75" xlink:href="#sprite8"/>
    <use height="3.5" transform="matrix(1.0, 0.0, 0.0, 1.0, 1.7, 11.0)" width="6.6" xlink:href="#sprite9"/>
    <use height="10.55" transform="matrix(1.0, 0.0, 0.0, 1.0, -7.1, 9.9)" width="12.5" xlink:href="#sprite10"/>
    <use height="3.25" transform="matrix(1.0, 0.0, 0.0, 1.0, -8.35, 8.8)" width="22.7" xlink:href="#sprite11"/>
    <use height="3.3" transform="matrix(1.0, 0.0, 0.0, 1.0, -11.75, 4.6)" width="30.3" xlink:href="#sprite12"/>
    <use height="6.45" transform="matrix(1.0, 0.0, 0.0, 1.0, -12.0, -0.4)" width="31.85" xlink:href="#sprite13"/>
    <use height="8.35" transform="matrix(1.0, 0.0, 0.0, 1.0, 9.65, 13.1)" width="7.6" xlink:href="#sprite14"/>
    <use height="7.15" transform="matrix(1.0, 0.0, 0.0, 1.0, 10.15, 13.35)" width="6.75" xlink:href="#sprite15"/>
    <use height="4.25" transform="matrix(1.0, 0.0, 0.0, 1.0, 12.1, 15.95)" width="3.4" xlink:href="#sprite16"/>
  </g>
  <defs>
    <g id="sprite0" transform="matrix(1.0, 0.0, 0.0, 1.0, -0.05, 0.0)">
      <use height="38.0" transform="matrix(1.0, 0.0, 0.0, 1.0, 0.05, 0.0)" width="32.05" xlink:href="#shape0"/>
    </g>
    <g id="shape0" transform="matrix(1.0, 0.0, 0.0, 1.0, -0.05, 0.0)">
      <path d="M27.35 7.4 Q29.5 11.55 30.9 16.15 32.35 20.85 32.05 25.65 31.7 30.6 27.85 33.75 24.05 36.95 19.1 37.8 L16.5 38.0 Q12.9 38.0 9.45 36.85 4.8 35.25 2.35 31.35 -0.2 27.4 0.05 23.0 0.25 18.6 2.05 13.7 3.85 8.75 7.0 5.05 10.1 1.3 14.7 0.1 L16.5 0.0 Q18.4 0.05 20.2 0.8 24.95 2.85 27.35 7.4" fill="#ffffff" fill-rule="evenodd" stroke="none"/>
    </g>
    <g id="sprite1" transform="matrix(1.0, 0.0, 0.0, 1.0, 0.25, 0.5)">
      <use height="21.6" transform="matrix(1.0, 0.0, 0.0, 1.0, -0.25, -0.5)" width="32.65" xlink:href="#shape1"/>
    </g>
    <g id="shape1" transform="matrix(1.0, 0.0, 0.0, 1.0, 0.25, 0.5)">
      <path d="M31.9 20.6 Q31.6 18.35 30.9 16.15 29.5 11.55 27.35 7.4 24.95 2.85 20.2 0.8 17.55 -0.3 14.7 0.1 10.1 1.3 7.0 5.05 3.85 8.75 2.05 13.7 0.7 17.3 0.25 20.6" fill="none" stroke="#000000" stroke-linecap="round" stroke-linejoin="round" stroke-width="1.0"/>
    </g>
    <g id="sprite2" transform="matrix(1.0, 0.0, 0.0, 1.0, -0.5, 0.0)">
      <use height="21.15" transform="matrix(1.0, 0.0, 0.0, 1.0, 0.5, 0.0)" width="34.9" xlink:href="#shape2"/>
    </g>
    <g id="shape2" transform="matrix(1.0, 0.0, 0.0, 1.0, -0.5, 0.0)">
      <path d="M33.55 12.4 L35.4 17.15 Q30.55 21.0 17.55 21.0 L7.85 19.65 Q8.8 17.55 11.1 15.05 15.7 10.1 22.65 8.4 28.75 6.85 31.75 3.3 33.25 1.5 33.55 0.0 L35.3 7.65 Q35.5 8.75 33.55 12.4" fill="#666666" fill-rule="evenodd" stroke="none"/>
      <path d="M1.8 0.2 Q1.4 1.85 2.15 3.65 3.7 7.45 9.65 8.15 12.95 8.55 13.75 12.95 14.15 15.15 13.85 17.3 L17.8 21.15 Q10.0 21.15 6.35 19.45 L9.05 18.2 Q3.35 18.45 0.7 15.45 L2.25 13.0 Q0.0 9.6 0.65 5.95 1.25 2.45 1.8 0.2" fill="#666666" fill-rule="evenodd" stroke="none"/>
    </g>
    <g id="sprite3" transform="matrix(1.0, 0.0, 0.0, 1.0, 0.0, 0.0)">
      <use height="14.45" transform="matrix(1.0, 0.0, 0.0, 1.0, 0.0, 0.0)" width="31.05" xlink:href="#shape3"/>
    </g>
    <g id="shape3" transform="matrix(1.0, 0.0, 0.0, 1.0, 0.0, 0.0)">
      <path d="M20.5 12.05 Q15.65 14.3 13.4 14.45 11.95 14.6 10.75 13.45 L8.8 11.25 6.45 9.25 3.7 6.8 Q1.9 5.75 1.25 4.8 L0.0 1.4 0.35 1.1 2.95 4.8 Q3.8 5.65 6.65 6.95 8.0 7.5 10.6 8.8 11.6 9.3 13.35 11.0 L15.15 9.9 17.3 9.0 22.5 6.6 Q26.75 4.5 27.95 3.35 30.7 0.75 31.05 0.0 30.9 1.9 28.65 5.5 26.4 9.35 20.5 12.05" fill="#c4b5b4" fill-rule="evenodd" stroke="none"/>
    </g>
    <g id="sprite4" transform="matrix(1.0, 0.0, 0.0, 1.0, 0.0, 0.15)">
      <use height="13.7" transform="matrix(1.0, 0.0, 0.0, 1.0, 0.0, -0.15)" width="18.9" xlink:href="#shape4"/>
    </g>
    <g id="shape4" transform="matrix(1.0, 0.0, 0.0, 1.0, 0.0, 0.15)">
      <path d="M13.0 0.45 Q19.15 0.05 18.9 2.6 14.3 4.7 10.9 7.8 7.25 11.0 5.15 13.55 0.85 12.3 0.0 12.3 0.1 11.6 1.3 9.95 3.0 7.6 5.2 5.55 L5.0 5.65 3.15 3.45 Q2.55 2.85 0.95 1.75 2.55 -0.7 5.1 0.0 L7.3 1.5 8.65 2.6 8.7 2.7 Q9.85 1.85 13.0 0.45" fill="#000000" fill-rule="evenodd" stroke="none"/>
    </g>
    <g id="sprite5" transform="matrix(1.0, 0.0, 0.0, 1.0, 0.0, 0.0)">
      <use height="6.7" transform="matrix(1.0, 0.0, 0.0, 1.0, 0.0, 0.0)" width="35.7" xlink:href="#shape5"/>
    </g>
    <g id="shape5" transform="matrix(1.0, 0.0, 0.0, 1.0, 0.0, 0.0)">
      <path d="M0.2 0.9 L0.0 0.55 0.1 0.2 Q0.25 0.05 0.45 0.0 L0.8 0.1 Q3.25 2.05 6.65 2.75 L6.05 3.65 Q2.7 2.85 0.2 0.9" fill="#313131" fill-rule="evenodd" stroke="none"/>
      <path d="M6.45 4.6 Q12.0 6.2 17.6 6.2 28.1 6.2 35.2 2.2" fill="none" stroke="#313131" stroke-linecap="round" stroke-linejoin="round" stroke-width="1.0"/>
    </g>
    <g id="sprite6" transform="matrix(1.0, 0.0, 0.0, 1.0, 0.5, 0.5)">
      <use height="19.4" transform="matrix(1.0, 0.0, 0.0, 1.0, -0.5, -0.5)" width="3.5" xlink:href="#shape6"/>
    </g>
    <g id="shape6" transform="matrix(1.0, 0.0, 0.0, 1.0, 0.5, 0.5)">
      <path d="M2.5 18.4 Q1.7 14.9 0.65 13.9 3.05 10.35 1.95 6.4 0.55 1.05 0.0 0.0" fill="none" stroke="#313131" stroke-linecap="round" stroke-linejoin="round" stroke-width="1.0"/>
    </g>
    <g id="sprite7" transform="matrix(1.0, 0.0, 0.0, 1.0, 0.5, 0.5)">
      <use height="18.25" transform="matrix(1.0, 0.0, 0.0, 1.0, -0.5, -0.5)" width="2.7" xlink:href="#shape7"/>
    </g>
    <g id="shape7" transform="matrix(1.0, 0.0, 0.0, 1.0, 0.5, 0.5)">
      <path d="M0.2 17.25 Q0.6 14.95 1.7 13.95 -0.75 10.35 0.35 6.45 1.8 1.1 1.5 0.0" fill="none" stroke="#313131" stroke-linecap="round" stroke-linejoin="round" stroke-width="1.0"/>
    </g>
    <g id="sprite8" transform="matrix(1.0, 0.0, 0.0, 1.0, 0.0, 0.1)">
      <use height="3.7" transform="matrix(1.0, 0.0, 0.0, 1.0, 0.0, -0.1)" width="27.75" xlink:href="#shape8"/>
    </g>
    <g id="shape8" transform="matrix(1.0, 0.0, 0.0, 1.0, 0.0, 0.1)">
      <path d="M0.65 1.9 L0.0 1.1 Q0.45 -0.35 3.95 0.5 L7.0 2.2 Q5.15 3.6 2.45 3.6 L0.65 1.9 M27.75 1.3 L27.1 2.05 25.15 3.6 Q19.8 3.75 17.8 2.5 L23.05 0.0 Q27.7 -0.5 27.75 1.3" fill="#bfbfbf" fill-rule="evenodd" stroke="none"/>
    </g>
    <g id="sprite9" transform="matrix(1.0, 0.0, 0.0, 1.0, 0.0, 0.0)">
      <use height="3.5" transform="matrix(1.0, 0.0, 0.0, 1.0, 0.0, 0.0)" width="6.6" xlink:href="#shape9"/>
    </g>
    <g id="shape9" transform="matrix(1.0, 0.0, 0.0, 1.0, 0.0, 0.0)">
      <path d="M1.55 0.0 Q5.25 0.6 6.6 2.4 5.2 2.95 4.5 3.5 1.6 0.9 0.0 1.1 0.5 0.4 1.55 0.0" fill="#454545" fill-rule="evenodd" stroke="none"/>
    </g>
    <g id="sprite10" transform="matrix(1.0, 0.0, 0.0, 1.0, 0.0, 0.0)">
      <use height="10.55" transform="matrix(1.0, 0.0, 0.0, 1.0, 0.0, 0.0)" width="12.5" xlink:href="#shape10"/>
    </g>
    <g id="shape10" transform="matrix(1.0, 0.0, 0.0, 1.0, 0.0, 0.0)">
      <path d="M12.5 0.05 Q12.2 -0.25 7.95 3.1 L3.25 7.3 0.0 10.55 Q0.2 9.9 2.5 7.05 3.8 5.55 5.8 3.85 9.5 0.55 12.45 0.0 L12.5 0.05" fill="#a5a9aa" fill-rule="evenodd" stroke="none"/>
    </g>
    <g id="sprite11" transform="matrix(1.0, 0.0, 0.0, 1.0, 0.0, 0.0)">
      <use height="3.25" transform="matrix(1.0, 0.0, 0.0, 1.0, 0.0, 0.0)" width="22.7" xlink:href="#shape11"/>
    </g>
    <g id="shape11" transform="matrix(1.0, 0.0, 0.0, 1.0, 0.0, 0.0)">
      <path d="M20.1 2.95 L19.45 3.25 Q15.55 1.25 13.55 1.1 L15.35 0.3 22.7 1.4 20.1 2.95" fill="#959595" fill-rule="evenodd" stroke="none"/>
      <path d="M4.55 0.0 L5.65 0.65 1.5 2.4 0.0 1.4 Q2.2 0.55 4.55 0.0" fill="#959595" fill-rule="evenodd" stroke="none"/>
    </g>
    <g id="sprite12" transform="matrix(1.0, 0.0, 0.0, 1.0, 0.0, 0.25)">
      <use height="3.3" transform="matrix(1.0, 0.0, 0.0, 1.0, 0.0, -0.25)" width="30.3" xlink:href="#shape12"/>
    </g>
    <g id="shape12" transform="matrix(1.0, 0.0, 0.0, 1.0, 0.0, 0.25)">
      <path d="M0.0 1.2 Q1.35 -0.6 2.6 0.4 L2.7 0.5 4.9 2.25 0.95 2.85 Q0.3 2.1 0.0 1.2 M30.3 0.85 L28.7 3.05 24.0 1.75 Q25.7 0.95 27.0 0.0 29.75 -0.75 30.3 0.85" fill="#959595" fill-rule="evenodd" stroke="none"/>
    </g>
    <g id="sprite13" transform="matrix(1.0, 0.0, 0.0, 1.0, 0.0, 0.0)">
      <use height="6.45" transform="matrix(1.0, 0.0, 0.0, 1.0, 0.0, 0.0)" width="31.85" xlink:href="#shape13"/>
    </g>
    <g id="shape13" transform="matrix(1.0, 0.0, 0.0, 1.0, 0.0, 0.0)">
      <path d="M31.65 3.55 Q31.55 4.4 30.55 6.1 28.7 5.3 27.25 5.25 L27.75 4.85 Q30.35 2.6 30.75 0.5 L31.3 0.0 Q32.2 0.3 31.65 3.55" fill="#2b2b2b" fill-rule="evenodd" stroke="none"/>
      <path d="M1.0 0.9 Q0.95 2.95 1.15 3.5 1.35 4.05 2.85 5.65 L0.25 6.45 Q-0.2 5.15 0.1 2.65 L0.4 0.25 Q0.35 0.55 1.0 0.9" fill="#2b2b2b" fill-rule="evenodd" stroke="none"/>
    </g>
    <g id="sprite14" transform="matrix(1.0, 0.0, 0.0, 1.0, 0.0, 0.0)">
      <use height="8.35" transform="matrix(1.0, 0.0, 0.0, 1.0, 0.0, 0.0)" width="7.6" xlink:href="#shape14"/>
    </g>
    <g id="shape14" transform="matrix(1.0, 0.0, 0.0, 1.0, 0.0, 0.0)">
      <path d="M7.6 1.6 Q7.7 3.25 6.2 5.95 4.5 8.95 2.95 8.2 1.6 7.5 0.6 5.6 -0.5 3.55 0.35 2.35 1.6 0.55 4.25 0.1 7.5 -0.35 7.6 1.6" fill="#9f1600" fill-rule="evenodd" stroke="none"/>
    </g>
    <g id="sprite15" transform="matrix(1.0, 0.0, 0.0, 1.0, 0.0, 0.0)">
      <use height="7.15" transform="matrix(1.0, 0.0, 0.0, 1.0, 0.0, 0.0)" width="6.75" xlink:href="#shape15"/>
    </g>
    <g id="shape15" transform="matrix(1.0, 0.0, 0.0, 1.0, 0.0, 0.0)">
      <path d="M6.75 1.3 Q6.7 2.35 5.6 4.05 L3.4 7.15 1.15 4.05 0.0 1.3 3.4 0.0 6.75 1.3" fill="#ffffff" fill-rule="evenodd" stroke="none"/>
    </g>
    <g id="sprite16" transform="matrix(1.0, 0.0, 0.0, 1.0, 0.0, 0.0)">
      <use height="4.25" transform="matrix(1.0, 0.0, 0.0, 1.0, 0.0, 0.0)" width="3.4" xlink:href="#shape16"/>
    </g>
    <g id="shape16" transform="matrix(1.0, 0.0, 0.0, 1.0, 0.0, 0.0)">
      <path d="M1.15 3.85 Q-0.25 1.7 0.05 0.85 0.4 -0.05 1.6 0.0 2.7 0.05 3.4 0.75 L1.5 4.25 1.15 3.85" fill="#d9b789" fill-rule="evenodd" stroke="none"/>
    </g>
  </defs>
</svg>
